X: 45
T:Midnight on the Water
S:https://tunearch.org/wiki/Midnight_on_the_Water
L:1/8
M:3/4
R: Waltz
K:D
DE|:"D"F2F2 FE|F2F2 FE|FA3 B|A2 F2 DE |
F2 d2 "G"B2|"D"A2F2 DE|"A"F2AFEF|1"D"D4 DE:|2"D"D4 (3ABc|]
|:"D"d4 de|d2c2 Bc|d4B AF|D4 d2|
"Em"e4 ef|e2d2e2|"Bm"f3a fe|d2B2c2|
"G"{c}d3c de|dc BA Bc|"D"d3B AF|D4 DE|
F2d2 "G"(Bd)|"D"A3(D DE)|"A"F2 (AFEF)|1 "D"D4 (3ABc :|2"D"D6:|]

